assets/playlist-hover.svg

<?xml version="1.0" encoding="utf-8"?>
<!-- Generator: Adobe Illustrator 22.0.0, SVG Export Plug-In . SVG Version: 6.00 Build 0)  -->
<svg version="1.1" id="Layer_1" xmlns="http://www.w3.org/2000/svg" xmlns:xlink="http://www.w3.org/1999/xlink" x="0px" y="0px"
	 width="18px" height="18px" viewBox="0 0 18 18" style="enable-background:new 0 0 18 18;" xml:space="preserve">
<style type="text/css">
	.st0{fill:#FFB600;}
	.st1{fill:none;}
</style>
<path class="st0" d="M3,8.2h3.8V3.8H3V8.2z M3,13.5h3.8V9H3V13.5z M7.5,13.5h3.8V9H7.5V13.5z M12,13.5h3.8V9H12V13.5z M7.5,8.2h3.8
	V3.8H7.5V8.2z M12,3.8v4.5h3.8V3.8H12z"/>
<path class="st1" d="M0,0h18v18H0V0z"/>
</svg>

<svg xmlns="http://www.w3.org/2000/svg" viewBox="0 0 18 18" width="18" height="18">
	<style>
		tspan { white-space:pre }
		.shp0 { fill: #ea1e65 } 
		.shp1 { fill: none } 
	</style>
	<path id="Layer" class="shp0" d="M3 8.2L6.8 8.2L6.8 3.8L3 3.8L3 8.2ZM3 13.5L6.8 13.5L6.8 9L3 9L3 13.5ZM7.5 13.5L11.3 13.5L11.3 9L7.5 9L7.5 13.5ZM12 13.5L15.8 13.5L15.8 9L12 9L12 13.5ZM7.5 8.2L11.3 8.2L11.3 3.8L7.5 3.8L7.5 8.2ZM12 3.8L12 8.3L15.8 8.3L15.8 3.8L12 3.8Z" />
	<path id="Layer" class="shp1" d="M0 0L18 0L18 18L0 18L0 0Z" />
</svg>
